X:807
T:Reel 807
M:4/4
K:Emin
L:1/8
EF|GEFD B,A,B,D|B,EEF E2B,E|DEFG ADDF||GEFD E2:||2GEFD E2|GF|Eee^d efe=d|Bdd^c dAFD|Eee^d e2BA|EAFD E2E2|Eee^d efe=d|Bdd^c d2FD|Eeed eBcA|BGAF E2|
